X:50
T: John Doherty's (A)
S: J.Kelly - P.O'Brien
Z: B.Black
R: reel
M: 4/4
L: 1/8
K: C
EAAB cABG |EAAG EGDB, |EAAB cABc | d^cde d=cAG |
EAAB cABG |EAAG EGDB, |EAAB cABc | d2 ge dcda ||
gcec AcGc |gceg aged |gcec AcGc | GAcd ed d2 |
gcec AcGc |gceg aged |c2 gc acgc | edce dcAG ||
